assets/Pickup truck/Flat/pickup_truck_flat.svg

<svg width="32" height="32" viewBox="0 0 32 32" fill="none" xmlns="http://www.w3.org/2000/svg">
<path d="M9.60907 19L9.60002 13.04C10.12 12.4 10.92 12 11.76 12H15.36C16.25 12 17 12.74 17 13.62V19H29V21L28 22L29 23V25.65C29 26.4 28.39 27 27.65 27H3.36001C2.61001 27 2.01001 26.4 2.01001 25.65V24L3.48001 22.6L2.01001 21C2.01001 19.9 2.91001 19 4.01001 19H9.60907Z" fill="#F8312F"/>
<path d="M13 18.14V13.9C13 13.4 12.6 13 12.1 13H9.62L5 19H12.14C12.62 19 13 18.62 13 18.14Z" fill="#50E2FF"/>
<path d="M29.04 19C29.59 19 30.04 18.55 30.04 18C30.04 17.45 29.59 17 29.04 17H17.01V19H29.04ZM7.5 30C9.433 30 11 28.433 11 26.5C11 24.567 9.433 23 7.5 23C5.567 23 4 24.567 4 26.5C4 28.433 5.567 30 7.5 30ZM23.5 30C25.433 30 27 28.433 27 26.5C27 24.567 25.433 23 23.5 23C21.567 23 20 24.567 20 26.5C20 28.433 21.567 30 23.5 30Z" fill="#321B41"/>
<path d="M29 21H28.5C27.65 21 26.96 21.71 27 22.57C27.04 23.38 27.74 24 28.55 24H29V21Z" fill="#F9C23C"/>
<path d="M2 24H2.91C3.51 24 4 23.51 4 22.91V22.09C4 21.49 3.51 21 2.91 21H2V24ZM7.5 28C8.32843 28 9 27.3284 9 26.5C9 25.6716 8.32843 25 7.5 25C6.67158 25 6 25.6716 6 26.5C6 27.3284 6.67158 28 7.5 28ZM23.5 28C24.3284 28 25 27.3284 25 26.5C25 25.6716 24.3284 25 23.5 25C22.6716 25 22 25.6716 22 26.5C22 27.3284 22.6716 28 23.5 28Z" fill="#E6E6E6"/>
</svg>

<svg xmlns="http://www.w3.org/2000/svg" width="32" height="32" fill="none"><path fill="#F8312F" d="m9.61 19-.01-5.96c.52-.64 1.32-1.04 2.16-1.04h3.6c.89 0 1.64.74 1.64 1.62V19h12v2l-1 1 1 1v2.65c0 .75-.61 1.35-1.35 1.35H3.36c-.75 0-1.35-.6-1.35-1.35V24l1.47-1.4L2.01 21c0-1.1.9-2 2-2h5.6Z"/><path fill="#50E2FF" d="M13 18.14V13.9c0-.5-.4-.9-.9-.9H9.62L5 19h7.14c.48 0 .86-.38.86-.86Z"/><path fill="#321B41" d="M29.04 19c.55 0 1-.45 1-1s-.45-1-1-1H17.01v2h12.03ZM7.5 30a3.5 3.5 0 1 0 0-7 3.5 3.5 0 0 0 0 7Zm16 0a3.5 3.5 0 1 0 0-7 3.5 3.5 0 0 0 0 7Z"/><path fill="#F9C23C" d="M29 21h-.5c-.85 0-1.54.71-1.5 1.57.04.81.74 1.43 1.55 1.43H29v-3Z"/><path fill="#E6E6E6" d="M2 24h.91c.6 0 1.09-.49 1.09-1.09v-.82c0-.6-.49-1.09-1.09-1.09H2v3Zm5.5 4a1.5 1.5 0 1 0 0-3 1.5 1.5 0 0 0 0 3Zm16 0a1.5 1.5 0 1 0 0-3 1.5 1.5 0 0 0 0 3Z"/></svg>
